!!!COM: Music21
!!!OTL: Muiñeira
!!!OMV: pezas_muineiras_muineira-do-morrazo-4_muineira-partitura.musicxml
**kern
*I"Bagpipes
*I'Bag
*clefG^2
*k[]
*M6/8
=1
!LO:TX:a:t=Presto
*MM180
!LO:TX:a:t=[quarter]=180
2r
8r
16eeLL
16ffJJ
=||
8ggL
8aa
8bbJ
8cccL
8bb
8aaJ
=
4gg
8ee
8ggL
8ff
8eeJ
=
8ddL
8ee
8ffJ
8ffL
8gg
8aaJ
=||
*M5/8
16ggLL
16eeJJ
[4cc
8ccL]
16eeL
16ffJJ
=||
*M6/8
8ggL
8aa
8bbJ
8cccL
8bb
8aaJ
=
4gg
8ee
8ggL
8ff
8eeJ
!!linebreak:original
=
8ddL
8ee
8ffJ
8ffL
8ee
8ddJ
=
*M5/8
2cc
16eeLL
16ffJJ
=||
8ggL
8aa
8bbJ
8cccL
8bb
8aaJ
=
4gg
8ee
8ggL
8ff
8eeJ
=
8ddL
8ee
8ffJ
8ffL
8gg
8aaJ
=||
*M5/8
16ggLL
16eeJJ
[4cc
8ccL]
16eeL
16ffJJ
=||
*M6/8
8ggL
8aa
8bbJ
8cccL
8bb
8aaJ
!!linebreak:original
=
4gg
8ee
8ggL
8ff
8eeJ
!!linebreak:original
=
8ddL
8ee
8ffJ
8ffL
8ee
8ddJ
=
2cc
16ccLL
16ddJJ
8ryy
=||
*M6/8
4ee
8cc
4dd
8b
=
8cc
4.cc
8r
16ccLL
16ddJJ
=
8eeL
8dd
8eeJ
8ffL
8ee
8ffJ
=
16ggLL
16eeJJ
4.cc
8r
16ccLL
16ddJJ
=
4ee
8cc
4dd
8b
!!linebreak:original
=
8cc
4.cc
8r
16ccLL
16ddJJ
=
8eeL
8dd
8eeJ
8ggL
8ff
8ddJ
=
*M5/8
2cc
16ccLL
16ddJJ
=||
*M6/8
4ee
8cc
4dd
8b
=
8cc
4.cc
8r
16ccLL
16ddJJ
=
8eeL
8dd
8eeJ
8ffL
8ee
8ffJ
=
16ggLL
16eeJJ
4.cc
8r
16ccLL
16ddJJ
!!linebreak:original
=
4ee
8cc
4dd
8b
!!linebreak:original
=
8cc
4.cc
8r
16ccLL
16ddJJ
=
8eeL
8dd
8eeJ
8ggL
8ff
8ddJ
=
2cc
16eeLL
16ffJJ
8ryy
==
*-
